<?xml version="1.0" encoding="UTF-8"?>
<map version="1.10" tiledversion="1.11.2" orientation="orthogonal" renderorder="right-down" width="20" height="14" tilewidth="32" tileheight="32" infinite="0" nextlayerid="5" nextobjectid="6">
 <properties>
  <property name="title" value="Starter Dungeon Room"/>
  <property name="map_id" value="starter_room"/>
 </properties>
 <tileset firstgid="1" source="dungeon_floor.tsx"/>
 <layer id="1" name="Ground" width="20" height="14">
  <data encoding="csv">
2,2,2,2,2,2,2,2,2,2,2,2,2,2,2,2,2,2,2,2,
2,1,1,1,1,1,1,1,1,1,1,1,1,1,1,1,1,1,1,2,
2,1,1,1,1,1,1,1,1,1,1,1,1,1,1,1,1,1,1,2,
2,1,1,1,1,1,1,1,1,1,1,1,1,1,1,1,1,1,1,2,
2,1,1,1,1,1,1,1,1,1,1,1,1,1,1,1,1,1,1,2,
2,1,1,1,1,1,1,1,1,1,1,1,1,1,1,1,1,1,1,2,
2,1,1,1,1,1,1,1,1,1,1,1,1,1,1,1,1,1,1,2,
2,1,1,1,1,1,1,1,1,1,1,1,1,1,1,1,1,1,1,2,
2,1,1,1,1,1,1,1,1,1,1,1,1,1,1,1,1,1,1,2,
2,1,1,1,1,1,1,1,1,1,1,1,1,1,1,1,1,1,1,2,
2,1,1,1,1,1,1,1,1,1,1,1,1,1,1,1,1,1,1,2,
2,1,1,1,1,1,1,1,1,1,1,1,1,1,1,1,1,1,1,2,
2,1,1,1,1,1,1,1,1,1,1,1,1,1,1,1,1,1,1,2,
2,2,2,2,2,2,2,2,2,2,2,2,2,2,2,2,2,2,2,2
</data>
 </layer>
 <objectgroup id="2" name="Collision">
  <object id="1" name="wall_top" x="0" y="0" width="640" height="32"/>
  <object id="2" name="wall_bottom" x="0" y="416" width="640" height="32"/>
  <object id="3" name="wall_left" x="0" y="32" width="32" height="384"/>
  <object id="4" name="wall_right" x="608" y="32" width="32" height="384"/>
 </objectgroup>
 <objectgroup id="3" name="Objects">
  <object id="5" name="Spawn" type="spawn" x="304" y="208" width="32" height="32">
   <point/>
  </object>
 </objectgroup>
</map>
